img/telegram.svg

<svg width="50" height="50" viewBox="0 0 50 50" fill="none" xmlns="http://www.w3.org/2000/svg">
<g clip-path="url(#clip0_0_60)">
<path d="M50.0001 25C50.0001 31.6304 47.3662 37.9893 42.6778 42.6777C37.9894 47.3661 31.6305 50 25.0001 50C18.3697 50 12.0109 47.3661 7.32245 42.6777C2.63404 37.9893 0.00012207 31.6304 0.00012207 25C0.00012207 18.3696 2.63404 12.0107 7.32245 7.32233C12.0109 2.63392 18.3697 0 25.0001 0C31.6305 0 37.9894 2.63392 42.6778 7.32233C47.3662 12.0107 50.0001 18.3696 50.0001 25ZM25.897 18.4563C23.4657 19.4688 18.6032 21.5625 11.3157 24.7375C10.1345 25.2062 9.51262 25.6687 9.45637 26.1187C9.36262 26.8781 10.3157 27.1781 11.6126 27.5875L12.1595 27.7594C13.4345 28.175 15.1532 28.6594 16.0439 28.6781C16.8564 28.6969 17.7595 28.3656 18.7564 27.6781C25.5657 23.0813 29.0814 20.7594 29.3001 20.7094C29.4564 20.6719 29.6751 20.6281 29.8189 20.7594C29.9657 20.8875 29.9501 21.1344 29.9345 21.2C29.8407 21.6031 26.1001 25.0781 24.1657 26.8781C23.5626 27.4406 23.1345 27.8375 23.047 27.9281C22.8543 28.125 22.6585 28.3188 22.4595 28.5094C21.272 29.6531 20.3845 30.5094 22.5064 31.9094C23.5282 32.5844 24.347 33.1375 25.1626 33.6937C26.0501 34.3 26.9376 34.9031 28.0876 35.6594C28.3782 35.8469 28.6595 36.05 28.9314 36.2437C29.9657 36.9812 30.9001 37.6437 32.047 37.5375C32.7157 37.475 33.4064 36.85 33.7564 34.975C34.5845 30.5469 36.2126 20.9562 36.5876 17.0031C36.6105 16.6745 36.5969 16.3444 36.547 16.0187C36.5176 15.756 36.3904 15.5139 36.1907 15.3406C35.9064 15.1443 35.5674 15.0427 35.222 15.05C34.2845 15.0656 32.8376 15.5688 25.897 18.4563Z" fill="white"/>
</g>
<defs>
<clipPath id="clip0_0_60">
<rect width="50" height="50" fill="white" transform="translate(0.00012207)"/>
</clipPath>
</defs>
</svg>

<svg width="50" height="50" fill="none" xmlns="http://www.w3.org/2000/svg"><g clip-path="url(#a)"><path d="M50 25a25 25 0 1 1-50 0 25 25 0 0 1 50 0Zm-24.103-6.544c-2.431 1.013-7.294 3.107-14.581 6.282-1.182.468-1.803.93-1.86 1.38-.093.76.86 1.06 2.157 1.47l.546.171c1.275.416 2.994.9 3.885.92.812.018 1.715-.313 2.712-1 6.81-4.598 10.325-6.92 10.544-6.97.156-.037.375-.08.519.05.147.128.131.375.116.441-.094.403-3.835 3.878-5.77 5.678-.602.563-1.03.96-1.118 1.05-.193.197-.389.39-.588.581-1.187 1.144-2.075 2 .047 3.4 1.022.675 1.841 1.229 2.657 1.785.887.606 1.775 1.21 2.925 1.965.29.188.572.391.843.585 1.035.737 1.97 1.4 3.116 1.294.669-.063 1.36-.688 1.71-2.563.828-4.428 2.456-14.019 2.83-17.972.023-.329.01-.659-.04-.984a1.053 1.053 0 0 0-.356-.678 1.644 1.644 0 0 0-.969-.291c-.938.016-2.384.519-9.325 3.406Z" fill="#fff"/></g><defs><clipPath id="a"><path fill="#fff" d="M0 0h50v50H0z"/></clipPath></defs></svg>
